src/img/seller-2.svg

<svg width="165" height="47" viewBox="0 0 165 47" fill="none" xmlns="http://www.w3.org/2000/svg">
<g clip-path="url(#clip0_1412_877)">
<path fill-rule="evenodd" clip-rule="evenodd" d="M37.7502 39.08L31.374 25.72L44.5014 23.74C44.3798 29.8 41.7543 35.24 37.7502 39.08ZM22.1291 44.89L29.7521 27.33L36.0066 40.44C32.3776 43.16 28.0085 44.89 23.1326 44.89H22.1291ZM32.7527 4.45L18.3784 10.02L4.8759 2.1H23.1225C26.6198 2.1 29.8737 2.97 32.7425 4.45H32.7527ZM39.3823 9.77C42.1294 13.11 43.8831 17.19 44.2582 21.77L31.6376 23.63L39.3924 9.78L39.3823 9.77ZM18.0033 33.52L27.5017 27.58L20.7504 42.92L18.0033 33.52ZM16.2496 34.88L19.2502 44.9H4.00412L16.2496 34.88ZM2.12877 22.88L15.1244 33.02L2.12877 43.78V22.88ZM29.6305 23.13L20.0104 11.63L35.0132 5.82C36.0168 6.56 37.0102 7.3 37.8921 8.17L29.6406 23.14L29.6305 23.13ZM27.2584 23.5L4.25754 20.16L18.1351 12.37L27.2584 23.5ZM16.8882 31.79L4.8759 22.39L26.8732 25.48L16.8781 31.79H16.8882ZM16.2598 11.13L2.12877 19.05V2.84L16.2496 11.13H16.2598ZM23.1225 0H0V47H23.1225C35.9965 47 46.4984 36.49 46.4984 23.5C46.4984 10.51 35.9965 0 23.1225 0Z" fill="white"/>
<path fill-rule="evenodd" clip-rule="evenodd" d="M123.875 19.6692C119.495 19.6692 115.877 23.0092 115.877 27.2092C115.877 31.4092 119.506 34.7492 123.875 34.7492C128.244 34.7492 131.873 31.4092 131.873 27.2092C131.873 23.0092 128.244 19.6692 123.875 19.6692ZM123.875 36.7392C118.249 36.7392 113.748 32.4092 113.748 27.2192C113.748 22.0292 118.249 17.6992 123.875 17.6992C129.501 17.6992 134.002 22.0292 134.002 27.2192C134.002 32.4092 129.501 36.7392 123.875 36.7392ZM70.2499 34.5092H65.1206V19.9192H70.2499C74.4973 19.9192 78.0047 23.1392 78.0047 27.2192C78.0047 31.2992 74.5075 34.5192 70.2499 34.5192V34.5092ZM63.002 36.4892H70.2499C75.6225 36.4892 80.1234 32.2792 80.1234 27.2092C80.1234 22.1392 75.7442 17.9292 70.2499 17.9292H63.002V36.4792V36.4892ZM100.255 34.5092H95.1261V19.9192H100.255C104.503 19.9192 108 23.1392 108 27.2192C108 31.2992 104.503 34.5192 100.255 34.5192V34.5092ZM93.0075 36.4892H100.255C105.628 36.4892 110.129 32.2792 110.129 27.2092C110.129 22.1392 105.75 17.9292 100.255 17.9292H93.0075V36.4792V36.4892ZM87.128 36.3692H84.9992V18.0592H87.128V36.3692ZM162.882 36.3692H165.011V18.0592H162.882V36.3692ZM155.005 36.3692H157.134V18.1792H155.259L147.757 27.9492L140.509 18.1792H138.634V36.3592H140.763V21.8892L147.889 31.2892L155.137 21.2692V36.3592H155.016L155.005 36.3692Z" fill="white"/>
</g>
<defs>
<clipPath id="clip0_1412_877">
<rect width="165" height="47" fill="white"/>
</clipPath>
</defs>
</svg>

<svg xmlns="http://www.w3.org/2000/svg" width="165" height="47" fill="none" xmlns:v="https://vecta.io/nano"><g clip-path="url(#A)" fill-rule="evenodd" fill="#fff"><path d="M37.75 39.08l-6.376-13.36 13.127-1.98c-.122 6.06-2.747 11.5-6.751 15.34zm-15.621 5.81l7.623-17.56 6.255 13.11c-3.629 2.72-7.998 4.45-12.874 4.45H22.13zM32.753 4.45l-14.374 5.57L4.876 2.1h18.247a20.89 20.89 0 0 1 9.62 2.35h.01zm6.63 5.32c2.747 3.34 4.501 7.42 4.876 12l-12.621 1.86 7.755-13.85-.01-.01zm-21.38 23.75l9.498-5.94-6.751 15.34-2.747-9.4zm-1.754 1.36L19.25 44.9H4.004L16.25 34.88zm-14.121-12l12.996 10.14L2.129 43.78v-20.9zm27.502.25l-9.62-11.5 15.003-5.81c1.004.74 1.997 1.48 2.879 2.35l-8.251 14.97-.01-.01zm-2.372.37l-23-3.34 13.878-7.79 9.123 11.13zm-10.37 8.29l-12.012-9.4 21.997 3.09-9.995 6.31h.01zm-.628-20.66L2.129 19.05V2.84l14.121 8.29h.01zM23.123 0H0v47h23.123c12.874 0 23.376-10.51 23.376-23.5S35.997 0 23.123 0zm100.752 19.669c-4.38 0-7.998 3.34-7.998 7.54s3.629 7.54 7.998 7.54 7.998-3.34 7.998-7.54-3.629-7.54-7.998-7.54zm0 17.07c-5.626 0-10.127-4.33-10.127-9.52s4.501-9.52 10.127-9.52 10.127 4.33 10.127 9.52-4.501 9.52-10.127 9.52zm-53.625-2.23h-5.129v-14.59h5.129c4.247 0 7.755 3.22 7.755 7.3s-3.497 7.3-7.755 7.3v-.01zm-7.248 1.98h7.248c5.373 0 9.874-4.21 9.874-9.28s-4.379-9.28-9.874-9.28h-7.248v18.55.01zm37.253-1.98h-5.129v-14.59h5.129c4.248 0 7.745 3.22 7.745 7.3s-3.497 7.3-7.745 7.3v-.01zm-7.248 1.98h7.248c5.373 0 9.874-4.21 9.874-9.28s-4.379-9.28-9.874-9.28h-7.248v18.55.01zm-5.879-.12h-2.129v-18.31h2.129v18.31zm75.754 0h2.129v-18.31h-2.129v18.31zm-7.877 0h2.129v-18.19h-1.875l-7.502 9.77-7.248-9.77h-1.875v18.18h2.129v-14.47l7.126 9.4 7.248-10.02v15.09h-.121l-.011.01z"/></g><defs><clipPath id="A"><path fill="#fff" d="M0 0h165v47H0z"/></clipPath></defs></svg>
